src/images/logo-prismic.svg

<svg height="26" viewBox="0 0 26 26" width="26" xmlns="http://www.w3.org/2000/svg"><path d="m11.6113629 26h8.1444527c3.4480807 0 6.2420653-2.7934973 6.2441832-6.2402626l-.0097006.0002933s-.2597306-5.98-2.5973051-8.84c-.1617644-.1979172-.3334794-.3808931-.5129931-.5500477v8.3435744c0 2.3010627-1.8589728 4.1664426-4.1664426 4.1664426h-1.758088c-.2983787.4205107-.6471993.808618-1.0549867 1.1419165-1.0693188.8739903-2.685051 1.5163383-4.2891198 1.9780835zm-5.37108542-.0000012c-3.4467721-.0021099-6.24027748-2.7960976-6.24027748-6.2441832v-8.1444352c.46174521 1.6040649 1.10409319 3.2197931 1.97808354 4.2891092.33329845.4077865.72140579.7566062 1.14191646 1.0549842v1.7580836c0 2.3074698 1.86537988 4.1664426 4.16644257 4.1664426h8.34360433c-.1691587.1795193-.3521394.3512394-.5500623.5130085-2.86 2.3375745-8.83999996 2.597305-8.83999996 2.597305l.00029284.0096854zm11.32905742-4.1599988h1.1505338c1.7328114 0 3.1201313-1.3969304 3.1201313-3.1201313v-9.14002598c-1.1144607-.68150759-2.3491288-.99948584-3.3356341-1.14568609.1380202.27727671.2156341.58906907.2156341.91754107v7.2966046c0 .0014439-.0000015.0028874-.0000045.0043305.0003937.0810915.0050814 2.8305884-1.1506606 5.1873672zm-1.1491529 0h-9.14005072c-1.72320092 0-3.12013128-1.3873199-3.12013128-3.1201313v-1.1505309c2.35677882 1.1557391 5.10627586 1.1510514 5.18736717 1.1506577.00144317.000003.00288667.0000045.00433053.0000045h7.2966046c.3284795 0 .6402786-.0776175.9175601-.2156436-.1461979.9865049-.4641735 2.2211776-1.1456804 3.3356436zm9.579818-7.4512942v-8.14452143c0-3.44809089-2.7935139-6.24208186-6.2402933-6.24418318l.0002933.00970066s-5.9799853.2597305-8.8399782 2.59730504c-.1979168.16176442-.3808922.33347941-.5500464.51299311h8.343582c2.3010627 0 4.1664426 1.85897283 4.1664426 4.16644257v1.75811425c.4205048.29837633.8086067.64719337 1.1419011 1.05497588.874 1.0693306 1.5163526 2.6850868 1.9780989 4.2891731zm-4.16-5.95801785v-1.15055667c0-1.73281133-1.3969304-3.12013128-3.1201313-3.12013128h-9.14003165c-.68150625 1.11446127-.9994837 2.34913012-1.14568349 3.33563562.27727749-.13802113.58907093-.21563562.91754414-.21563562h7.2966046c.0022173 0 .0044338.00000352.0066494.00001054.1208931-.00038808 2.8463346.00378858 5.1850483 1.15067741zm-7.4513116-8.43068795h-8.14450403c-3.44809586 0-6.24208991 2.79352197-6.24418319 6.2403082l.00968531-.00029284s.2597305 5.97998524 2.59730504 8.83997824c.16176904.1979224.33348921.3809026.51300847.5500609v-8.34361193c0-2.30106269 1.85897283-4.16644257 4.16644257-4.16644257h1.75810991c.2983756-.42050476.64719177-.80860671 1.05497322-1.1419011 1.0693281-.87400004 2.6850802-1.51635258 4.2891627-1.9780989zm-5.95800329 4.16h-1.15055383c-1.73281133 0-3.12013128 1.39693036-3.12013128 3.12013128v9.14005642c1.11446661.6815055 2.34914001.9994803 3.3356451 1.1456778-.13802705-.2772823-.2156451-.5890825-.2156451-.9175632v-7.2966046c0-.00221729.00000352-.00443376.00001054-.00664941-.00038808-.12089301.00378856-2.84633459 1.15067457-5.18504829z" fill="#e4e7e9" fill-rule="evenodd"/></svg>

<?xml version="1.0" encoding="UTF-8" standalone="no"?>
<svg width="26px" height="26px" viewBox="0 0 26 26" version="1.1" xmlns="http://www.w3.org/2000/svg" xmlns:xlink="http://www.w3.org/1999/xlink">
    <!-- Generator: Sketch 39.1 (31720) - http://www.bohemiancoding.com/sketch -->
    <title>Artboard 2</title>
    <desc>Created with Sketch.</desc>
    <defs></defs>
    <g id="Page-1" stroke="none" stroke-width="1" fill="none" fill-rule="evenodd">
        <g id="Artboard-2" fill="#E4E7E9">
            <path d="M11.6113629,26 L19.7558156,26 C23.2038963,26 25.9978809,23.2065027 25.9999988,19.7597374 L25.9902982,19.7600307 C25.9902982,19.7600307 25.7305676,13.7800307 23.3929931,10.9200307 C23.2312287,10.7221135 23.0595137,10.5391376 22.88,10.369983 L22.88,18.7135574 C22.88,21.0146201 21.0210272,22.88 18.7135574,22.88 L16.9554694,22.88 C16.6570907,23.3005107 16.3082701,23.688618 15.9004827,24.0219165 C14.8311639,24.8959068 13.2154317,25.5382548 11.6113629,26 Z M6.24027748,25.9999988 C2.79350538,25.9978889 -2.27373675e-13,23.2039012 -2.27373675e-13,19.7558156 L-2.27373675e-13,11.6113804 C0.461745208,13.2154453 1.10409319,14.8311735 1.97808354,15.9004896 C2.31138199,16.3082761 2.69948933,16.6570958 3.12,16.9554738 L3.12,18.7135574 C3.12,21.0210272 4.98537988,22.88 7.28644257,22.88 L15.6300469,22.88 C15.4608882,23.0595193 15.2779075,23.2312394 15.0799846,23.3930085 C12.2199846,25.730583 6.23998464,25.9903135 6.23998464,25.9903135 L6.24027748,25.9999989 Z M17.5693349,21.84 L18.7198687,21.84 C20.4526801,21.84 21.84,20.4430696 21.84,18.7198687 L21.84,9.57984272 C20.7255393,8.89833513 19.4908712,8.58035688 18.5043659,8.43415663 C18.6423861,8.71143334 18.72,9.0232257 18.72,9.3516977 L18.72,16.6483023 C18.72,16.6497462 18.7199985,16.6511897 18.7199955,16.6526328 C18.7203892,16.7337243 18.7250769,19.4832212 17.5693349,21.84 Z M16.420182,21.84 L7.28013128,21.84 C5.55693036,21.84 4.16,20.4526801 4.16,18.7198687 L4.16,17.5693378 C6.51677882,18.7250769 9.26627586,18.7203892 9.34736717,18.7199955 C9.34881034,18.7199985 9.35025384,18.72 9.3516977,18.72 L16.6483023,18.72 C16.9767818,18.72 17.2885809,18.6423825 17.5658624,18.5043564 C17.4196645,19.4908613 17.1016889,20.725534 16.420182,21.84 Z M26,14.3887058 L26,6.24418437 C26,2.79609348 23.2064861,0.00210251178 19.7597067,1.18606382e-06 L19.76,0.00970184745 C19.76,0.00970184745 13.7800147,0.269432352 10.9200218,2.60700689 C10.722105,2.76877131 10.5391296,2.9404863 10.3699754,3.12 L18.7135574,3.12 C21.0146201,3.12 22.88,4.97897283 22.88,7.28644257 L22.88,9.04455682 C23.3005048,9.34293315 23.6886067,9.69175019 24.0219011,10.0995327 C24.8959011,11.1688633 25.5382537,12.7846195 26,14.3887058 Z M21.84,8.43068795 L21.84,7.28013128 C21.84,5.54731995 20.4430696,4.16 18.7198687,4.16 L9.57983705,4.16 C8.8983308,5.27446127 8.58035335,6.50913012 8.43415356,7.49563562 C8.71143105,7.35761449 9.02322449,7.28 9.3516977,7.28 L16.6483023,7.28 C16.6505196,7.28 16.6527361,7.28000352 16.6549517,7.28001054 C16.7758448,7.27962246 19.5012863,7.28379912 21.84,8.43068795 Z M14.3886884,0 L6.24418437,0 C2.79608851,0 0.00209446286,2.79352197 1.17700073e-06,6.2403082 L0.00968648914,6.24001536 C0.00968648914,6.24001536 0.269416993,12.2200006 2.60699153,15.0799936 C2.76876057,15.277916 2.94048074,15.4608962 3.12,15.6300545 L3.12,7.28644257 C3.12,4.98537988 4.97897283,3.12 7.28644257,3.12 L9.04455248,3.12 C9.34292808,2.69949524 9.69174425,2.31139329 10.0995257,1.9780989 C11.1688538,1.10409886 12.7846059,0.461746323 14.3886884,-2.98294722e-12 Z M8.43068511,4.16 L7.28013128,4.16 C5.54731995,4.16 4.16,5.55693036 4.16,7.28013128 L4.16,16.4201877 C5.27446661,17.1016932 6.50914001,17.419668 7.4956451,17.5658655 C7.35761805,17.2885832 7.28,16.976783 7.28,16.6483023 L7.28,9.3516977 C7.28,9.34948041 7.28000352,9.34726394 7.28001054,9.34504829 C7.27962246,9.22415528 7.2837991,6.4987137 8.43068511,4.16 Z" id="Combined-Shape"></path>
        </g>
    </g>
</svg>
